web/icons/gps/players.svg

<svg width="256" height="256" viewBox="0 0 256 256" fill="none" xmlns="http://www.w3.org/2000/svg">
<path fill-rule="evenodd" clip-rule="evenodd" d="M50 0C22.3858 0 0 22.386 0 50V206C0 233.61 22.3858 256 50 256H206C233.614 256 256 233.61 256 206V50C256 22.386 233.614 0 206 0H50ZM176.471 192.76C162.793 202.42 146.102 208.09 128.087 208.09C110.044 208.09 93.3302 202.4 79.6405 192.72C80.7657 183.89 85.6834 175.59 93.6448 169.25C102.77 162 115.148 157.92 128.053 157.92C140.959 157.92 153.336 162 162.461 169.25C170.436 175.6 175.357 183.91 176.471 192.76ZM186.82 184.14C184.084 175.99 178.691 168.48 171.063 162.41C159.656 153.34 144.185 148.24 128.053 148.24C111.921 148.24 96.4498 153.34 85.0428 162.41C77.4302 168.47 72.0438 175.96 69.3027 184.09C53.7417 168.84 44.0864 147.59 44.0864 124.09C44.0864 77.695 81.6946 40.086 128.087 40.086C174.479 40.086 212.087 77.695 212.087 124.09C212.087 147.62 202.411 168.89 186.82 184.14ZM224.173 124.09C224.173 177.15 181.154 220.17 128.087 220.17C75.0195 220.17 32 177.15 32 124.09C32 71.019 75.0195 28 128.087 28C181.154 28 224.173 71.019 224.173 124.09ZM128.053 123.62C141.115 123.62 151.576 113.12 151.576 100.33C151.576 87.542 141.115 77.045 128.053 77.045C114.991 77.045 104.53 87.542 104.53 100.33C104.53 113.12 114.991 123.62 128.053 123.62ZM128.053 134.62C147.119 134.62 162.576 119.27 162.576 100.33C162.576 81.397 147.119 66.045 128.053 66.045C108.987 66.045 93.5302 81.397 93.5302 100.33C93.5302 119.27 108.987 134.62 128.053 134.62Z" fill="#6576CC"/>
</svg>

<svg width="256" height="256" fill="none" xmlns="http://www.w3.org/2000/svg"><path fill-rule="evenodd" clip-rule="evenodd" d="M50 0C22.386 0 0 22.386 0 50v156c0 27.61 22.386 50 50 50h156c27.614 0 50-22.39 50-50V50c0-27.614-22.386-50-50-50H50Zm126.471 192.76c-13.678 9.66-30.369 15.33-48.384 15.33-18.043 0-34.757-5.69-48.446-15.37 1.125-8.83 6.042-17.13 14.004-23.47 9.125-7.25 21.503-11.33 34.408-11.33 12.906 0 25.283 4.08 34.408 11.33 7.975 6.35 12.896 14.66 14.01 23.51Zm10.349-8.62c-2.736-8.15-8.129-15.66-15.757-21.73-11.407-9.07-26.878-14.17-43.01-14.17-16.132 0-31.603 5.1-43.01 14.17-7.613 6.06-13 13.55-15.74 21.68-15.561-15.25-25.217-36.5-25.217-60 0-46.395 37.609-84.004 84.001-84.004s84 37.609 84 84.004c0 23.53-9.676 44.8-25.267 60.05Zm37.353-60.05c0 53.06-43.019 96.08-96.086 96.08S32 177.15 32 124.09C32 71.019 75.02 28 128.087 28s96.086 43.019 96.086 96.09Zm-96.12-.47c13.062 0 23.523-10.5 23.523-23.29 0-12.788-10.461-23.285-23.523-23.285S104.53 87.542 104.53 100.33c0 12.79 10.461 23.29 23.523 23.29Zm0 11c19.066 0 34.523-15.35 34.523-34.29 0-18.933-15.457-34.285-34.523-34.285-19.066 0-34.523 15.352-34.523 34.285 0 18.94 15.457 34.29 34.523 34.29Z" fill="#6576CC"/></svg>
